X:1
T:Title
%%score ( 1 2 ) ( 3 4 )
L:1/8
Q:1/4=112
M:3/4
K:F
V:1 treble nm="Grand Piano, Soprano"
V:2 treble 
V:3 bass nm="Choir Pad, What Are They Doing in Heaven"
V:4 bass 
V:1
 F[FG] [FA]4 | [FA][FA] [FA]2 [FA]2 | F[FG] [DF]2 [DF]2 | D2 [CF]4 | F[FG] [FA]4 | %5
w: By~Charles~Albert~Tindley,~1901 * *|||||
 [FA]2 [FA]2 [EG]2 | F2 [FA]2 [EG]2 | F2 [EG]4 | .A2 z2 z2 | [Fd][Fc] [FA]4 | [EG]F [DG]2 [DF]2 | %11
w: ||||||
 D2 [CF]4 | F[FG] [FA]4 | [FA]2 [EG]2 F2- | F[EG] [CF]4- | [CF]6 | [Fc]2 [Fd]4 | %17
w: ||||||
 [Fd]2 [Fd]2 [Fc]2 | [Fc]2 [Fd]2 [Fc]2- | [Fc][FA] [Fc]4 | [Fc]2 [Fd]4 | [Fd]2 [Fd]2 [Fc]2 | %22
w: |||||
 [Fc]2 [Fd]2 [Fc]2- | [Fc][FA] [EG]4 | F2 [FA]4 | [FA]2 [FA]4 | [EG]F [DG]2 [DF]2- | [DF]D [CF]4 | %28
w: ||||||
 [CF]2 [FA]2 [FA]2- | [FA][FA] [EG]2 [CF]2- | [CF][CG] [CF]4- | [CF]6 |] %32
w: ||||
V:2
 x6 | x6 | x6 | x6 | x6 | x6 | x6 | x6 | F-[FB] [Fc]4 | x6 | x6 | x6 | x6 | x6 | x6 | x6 | x6 | %17
 x6 | x6 | x6 | x6 | x6 | x6 | x6 | x6 | x6 | x6 | x6 | x6 | x6 | x6 | x6 |] %32
V:3
 [F,A,][F,B,] [F,C]4 | [F,C][F,C] [F,C]2 [F,C]2 | [F,A,][F,B,] [B,,B,]2 [B,,B,]2 | %3
 [B,,B,]2 [F,A,]4 | [F,A,][F,B,] [F,C]4 | [F,C]2 [F,C]2 [F,B,]2 | [F,A,]2 [C,C]2 [C,B,]2 | %7
 [D,A,]2 [C,C]4 | .C2 z2 z2 | [F,B,][F,A,] [F,C]4 | [F,B,][F,A,] [B,,B,]2 [B,,B,]2 | %11
 [B,,B,]2 [F,A,]4 | [F,A,][F,B,] [F,C]4 | [F,C]2 [C,B,]2 [C,A,]2- | [C,A,][C,B,] [F,A,]4- | %15
 [F,A,]6 | [F,A,]2 [B,,B,]4 | [B,,B,]2 [F,B,]2 [F,A,]2 | [F,A,]2 [F,B,]2 [F,A,]2- | %19
 [F,A,][F,C] [F,A,]4 | [F,A,]2 [B,,B,]4 | [B,,B,]2 [F,B,]2 [F,A,]2 | [F,A,]2 [F,B,]2 [F,A,]2- | %23
 [F,A,][F,C] [C,C]4 | [F,A,]2 [F,C]4 | [F,C]2 [F,C]4 | [F,B,][F,A,] [B,,B,]2 [B,,B,]2- | %27
 [B,,B,][B,,B,] [F,A,]4 | [F,A,]2 [C,C]2 [C,C]2- | [C,C][C,C] [C,B,]2 [C,A,]2- | %30
 [C,A,][C,B,] [F,A,]4- | [F,A,]6 |] %32
V:4
 x6 | x6 | x6 | x6 | x6 | x6 | x6 | x6 | F,-[F,B,] [F,A,]4 | x6 | x6 | x6 | x6 | x6 | x6 | x6 | %16
 x6 | x6 | x6 | x6 | x6 | x6 | x6 | x6 | x6 | x6 | x6 | x6 | x6 | x6 | x6 | x6 |] %32

